images/icons/logo.svg

<svg width="189" height="35" viewBox="0 0 189 35" fill="none" xmlns="http://www.w3.org/2000/svg">
<path fill-rule="evenodd" clip-rule="evenodd" d="M54.2027 0C54.2064 2.4859 53.7162 4.94803 52.76 7.24478C51.8038 9.54153 50.4006 11.6276 48.6312 13.383C46.8672 15.1422 44.7712 16.5373 42.4636 17.4882C40.1559 18.4391 37.6821 18.927 35.1844 18.9238C32.6854 18.9276 30.2104 18.44 27.9016 17.4891C25.5927 16.5382 23.4956 15.1428 21.7306 13.383C19.9626 11.6269 18.5608 9.54055 17.6058 7.24385C16.6509 4.94716 16.1616 2.48539 16.166 0L21.8693 0C21.8669 1.73958 22.2101 3.46249 22.8791 5.06972C23.5482 6.67694 24.53 8.13678 25.7681 9.36534C27.0035 10.597 28.4712 11.5738 30.0872 12.2396C31.7031 12.9054 33.4353 13.2471 35.1844 13.245C36.9332 13.2472 38.6653 12.9056 40.281 12.2398C41.8967 11.574 43.3642 10.5971 44.5992 9.36534C45.8375 8.13685 46.8195 6.67705 47.4888 5.06983C48.1581 3.46262 48.5016 1.73967 48.4994 0L54.2027 0Z" fill="white"/>
<path fill-rule="evenodd" clip-rule="evenodd" d="M62.2873 0C62.2915 3.54108 61.5923 7.04809 60.2298 10.3195C58.8674 13.591 56.8686 16.5625 54.3482 19.0632C51.8317 21.5666 48.8441 23.5524 45.5561 24.9072C42.268 26.2621 38.7439 26.9594 35.185 26.9594C31.626 26.9594 28.1019 26.2621 24.8138 24.9072C21.5258 23.5524 18.5382 21.5666 16.0217 19.0632C13.5015 16.5624 11.5029 13.5909 10.1407 10.3194C8.77853 7.04796 8.07957 3.54099 8.08401 0L13.7873 0C13.7836 2.7957 14.3353 5.56456 15.4107 8.1475C16.4861 10.7304 18.064 13.0766 20.0537 15.051C22.0386 17.0307 24.3973 18.6007 26.9941 19.6707C29.591 20.7407 32.3748 21.2896 35.1856 21.2859C37.9962 21.2894 40.7798 20.7404 43.3764 19.6704C45.973 18.6004 48.3315 17.0306 50.3162 15.051C52.3074 13.0773 53.8866 10.7314 54.9632 8.14843C56.0398 5.56543 56.5925 2.79621 56.5896 0L62.2873 0Z" fill="white"/>
<path fill-rule="evenodd" clip-rule="evenodd" d="M70.3686 0C70.3747 4.59717 69.4674 9.15023 67.6989 13.3975C65.9303 17.6447 63.3354 21.5024 60.0633 24.7489C56.7999 28.0037 52.922 30.5848 48.6525 32.3441C44.3831 34.1033 39.8062 35.0059 35.185 35C30.5636 35.0057 25.9866 34.103 21.7169 32.3438C17.4473 30.5846 13.5691 28.0035 10.3053 24.7489C7.03348 21.5022 4.43878 17.6445 2.67027 13.3973C0.901768 9.15006 -0.0056928 4.59712 2.68703e-05 0L5.7033 0C5.69814 3.85186 6.45825 7.66675 7.93996 11.2255C9.42166 14.7842 11.5957 18.0165 14.3373 20.7368C17.072 23.4642 20.3216 25.6272 23.8994 27.1013C27.4771 28.5755 31.3125 29.3318 35.185 29.3267C39.0578 29.3323 42.8935 28.5762 46.4716 27.102C50.0496 25.6278 53.2994 23.4646 56.0341 20.7368C58.7753 18.0164 60.9491 14.7839 62.4306 11.2253C63.912 7.66657 64.672 3.85175 64.6667 0L70.3686 0Z" fill="white"/>
<path fill-rule="evenodd" clip-rule="evenodd" d="M89.609 8.90428V0.528178H97.2374V8.29584C97.25 9.16648 97.1155 10.033 96.8393 10.8593C96.5992 11.5738 96.2049 12.2275 95.684 12.7743C95.1745 13.2978 94.5931 13.747 93.9572 14.1085C93.2502 14.502 92.4896 14.7915 91.6992 14.968C90.8424 15.1699 89.9732 15.3151 89.0972 15.4026C88.1482 15.4962 87.195 15.5423 86.2414 15.5406C85.0967 15.5473 83.9527 15.4855 82.8155 15.3557C81.797 15.2341 80.7948 15.0028 79.8266 14.6659C78.9462 14.3771 78.123 13.9383 77.3938 13.369C76.7114 12.8047 76.1705 12.0899 75.814 11.2815C75.3991 10.3413 75.1951 9.32244 75.2163 8.29584V0.528178H82.8655V8.90428C82.8655 9.96112 83.1489 10.7273 83.7157 11.2028C84.2825 11.6784 85.1235 11.9161 86.2386 11.9161C86.6309 11.9189 87.0225 11.8833 87.4078 11.8099C87.7372 11.748 88.0551 11.6368 88.351 11.4802C88.6199 11.3361 88.856 11.1383 89.0445 10.8993C89.2371 10.6419 89.3784 10.3501 89.4606 10.0398C89.5622 9.66991 89.6113 9.28769 89.6062 8.90428H89.609ZM117.2 10.2509V0.528178H121.639V15.0067H112.762L104.059 5.28397V15.0067H99.6202V0.528178H108.497L117.2 10.2509ZM135.055 3.62006C133.726 3.62006 132.774 3.95027 132.199 4.61068C131.624 5.27109 131.336 6.32334 131.336 7.76742C131.336 9.21149 131.624 10.2642 132.199 10.9255C132.774 11.5869 133.726 11.9171 135.055 11.9161C135.676 11.9343 136.294 11.8307 136.875 11.6112C137.34 11.4261 137.745 11.115 138.042 10.7131C138.363 10.2502 138.576 9.72247 138.667 9.1678H146.317C146.159 10.2514 145.728 11.2776 145.064 12.1507C144.399 13.0238 143.524 13.7154 142.518 14.1609C141.444 14.6516 140.31 15.0027 139.145 15.2053C137.794 15.4356 136.425 15.546 135.055 15.5351C133.849 15.5428 132.643 15.4635 131.449 15.2978C130.386 15.1457 129.344 14.8755 128.342 14.492C127.439 14.1575 126.601 13.6702 125.865 13.0516C125.172 12.4416 124.628 11.683 124.274 10.8331C123.87 9.86176 123.671 8.8183 123.69 7.76742C123.671 6.71697 123.87 5.67393 124.274 4.70312C124.628 3.85274 125.172 3.09363 125.865 2.4832C126.603 1.864 127.443 1.37666 128.349 1.0428C129.351 0.659379 130.393 0.389106 131.456 0.237063C132.65 0.0712975 133.856 -0.00801303 135.062 -0.000244014C136.432 -0.0111248 137.801 0.0992251 139.152 0.329502C140.315 0.53451 141.446 0.887385 142.518 1.37945C143.506 1.82362 144.372 2.49856 145.041 3.34689C145.714 4.22372 146.153 5.25551 146.317 6.34633H138.667C138.472 5.40814 138.092 4.7183 137.525 4.2768C136.958 3.8353 136.135 3.61547 135.055 3.61731V3.62006ZM155.932 0.528178V11.5726H167.825V15.0067H148.283V0.528178H155.932ZM169.451 0.528178H189.007V3.77735H177.107V6.12972H187.759L187.228 9.22023H177.103V11.3877H189.003V15.0067H169.446V0.528178H169.451ZM86.2317 23.0834C84.9039 23.0834 83.9519 23.4136 83.3759 24.074C82.7998 24.7344 82.5122 25.7871 82.5132 27.2321C82.5132 28.6762 82.8007 29.7284 83.3759 30.3888C83.951 31.0492 84.9029 31.3794 86.2317 31.3794C86.8524 31.3982 87.4708 31.295 88.0514 31.0759C88.5168 30.8898 88.9211 30.5789 89.2192 30.1777C89.5394 29.7148 89.7526 29.1871 89.8434 28.6325H97.5051C97.3471 29.7161 96.9159 30.7423 96.2516 31.6154C95.5874 32.4885 94.7116 33.1801 93.7061 33.6256C92.6316 34.1165 91.4979 34.4671 90.333 34.6686C88.9822 34.9001 87.6134 35.0109 86.2428 34.9998C85.0365 35.0071 83.8313 34.9273 82.6366 34.7611C81.5738 34.6097 80.5316 34.3394 79.5298 33.9553C78.6242 33.6225 77.7836 33.1356 77.0457 32.5163C76.3524 31.9059 75.8075 31.1468 75.452 30.2964C74.6735 28.3264 74.6735 26.1364 75.452 24.1664C75.8073 23.3163 76.3522 22.5576 77.0457 21.9479C77.7832 21.3277 78.6238 20.8403 79.5298 20.5075C80.5316 20.1234 81.5738 19.8531 82.6366 19.7017C83.8313 19.5355 85.0365 19.4557 86.2428 19.4631C87.6134 19.4519 88.9822 19.5627 90.333 19.7942C91.4951 19.9956 92.6265 20.3448 93.6992 20.8331C94.6871 21.2785 95.5529 21.9538 96.2235 22.8019C96.8977 23.6779 97.3386 24.7092 97.5051 25.8H89.8475C89.6534 24.8673 89.2729 24.1807 88.7061 23.7401C88.1392 23.2995 87.3158 23.0792 86.2358 23.0792L86.2317 23.0834ZM113.855 25.5144V19.9956H121.483V34.4713H113.855V28.9526H107.113V34.4713H99.4635V19.9929H107.113V25.5116L113.855 25.5144ZM131.811 34.4713H124.164V19.9929H131.815V34.4713H131.811ZM142.116 19.9929V31.0304H154.015V34.4658H134.471V19.9929H142.116ZM163.284 19.9929V31.0304H175.184V34.4658H155.639V19.9929H163.284Z" fill="white"/>
</svg>

<svg width="189" height="35" viewBox="0 0 189 35" fill="none" xmlns="http://www.w3.org/2000/svg"><path fill-rule="evenodd" clip-rule="evenodd" d="M54.203 0a18.775 18.775 0 01-1.443 7.245 18.856 18.856 0 01-4.129 6.138 18.967 18.967 0 01-6.167 4.105 19.044 19.044 0 01-7.28 1.436 19.05 19.05 0 01-7.282-1.435 18.971 18.971 0 01-6.171-4.106 18.86 18.86 0 01-4.125-6.14A18.78 18.78 0 0116.166 0h5.703a13.155 13.155 0 001.01 5.07 13.198 13.198 0 002.89 4.295 13.284 13.284 0 004.318 2.875 13.339 13.339 0 005.097 1.005c1.75.002 3.481-.34 5.097-1.005a13.279 13.279 0 004.318-2.875 13.199 13.199 0 002.89-4.295A13.144 13.144 0 0048.499 0h5.704z" fill="#fff"/><path fill-rule="evenodd" clip-rule="evenodd" d="M62.287 0a26.756 26.756 0 01-2.057 10.32 26.87 26.87 0 01-5.882 8.743 27.11 27.11 0 01-8.792 5.844 27.224 27.224 0 01-20.742 0 27.11 27.11 0 01-8.792-5.844 26.87 26.87 0 01-5.881-8.744A26.757 26.757 0 018.084 0h5.703a21.123 21.123 0 001.624 8.148 21.214 21.214 0 004.643 6.903 21.34 21.34 0 006.94 4.62 21.43 21.43 0 008.192 1.615 21.43 21.43 0 008.19-1.616 21.338 21.338 0 006.94-4.619 21.208 21.208 0 004.647-6.903A21.121 21.121 0 0056.59 0h5.697z" fill="#fff"/><path fill-rule="evenodd" clip-rule="evenodd" d="M70.369 0a34.731 34.731 0 01-2.67 13.398 34.881 34.881 0 01-7.636 11.35 35.087 35.087 0 01-11.41 7.596A35.235 35.235 0 0135.184 35a35.242 35.242 0 01-13.468-2.656 35.094 35.094 0 01-11.412-7.595A34.885 34.885 0 012.67 13.397 34.738 34.738 0 010 0h5.703A29.101 29.101 0 007.94 11.226a29.224 29.224 0 006.397 9.51 29.4 29.4 0 009.562 6.365 29.523 29.523 0 0011.286 2.226c3.873.005 7.709-.75 11.287-2.225a29.397 29.397 0 009.562-6.365 29.228 29.228 0 006.397-9.512A29.103 29.103 0 0064.667 0h5.702zm19.24 8.904V.528h7.628v7.768a7.732 7.732 0 01-.398 2.563 5.16 5.16 0 01-1.155 1.915c-.51.524-1.09.973-1.727 1.335a8.413 8.413 0 01-2.258.859 20.02 20.02 0 01-2.602.435c-.949.093-1.902.14-2.856.138a28.727 28.727 0 01-3.425-.185 14.227 14.227 0 01-2.99-.69 8.01 8.01 0 01-2.432-1.297 5.687 5.687 0 01-1.58-2.088 7.035 7.035 0 01-.598-2.985V.528h7.65v8.376c0 1.057.283 1.823.85 2.299.567.475 1.408.713 2.523.713.392.003.783-.033 1.169-.106.33-.062.647-.173.943-.33.269-.144.505-.342.694-.58.192-.258.333-.55.416-.86.101-.37.15-.752.145-1.136h.003zm27.591 1.347V.528h4.439v14.479h-8.877l-8.703-9.723v9.723H99.62V.528h8.877l8.703 9.723zm17.855-6.63c-1.329 0-2.281.33-2.856.99-.575.66-.863 1.712-.863 3.156 0 1.444.288 2.497.863 3.158.575.662 1.527.992 2.856.991a4.754 4.754 0 001.82-.305c.465-.185.87-.496 1.167-.898.321-.463.534-.99.625-1.545h7.65a6.47 6.47 0 01-1.253 2.983 6.516 6.516 0 01-2.546 2.01c-1.074.49-2.208.842-3.373 1.044-1.351.23-2.72.341-4.09.33a25.078 25.078 0 01-3.606-.237 14.396 14.396 0 01-3.107-.806 8.366 8.366 0 01-2.477-1.44 6.06 6.06 0 01-1.591-2.219 7.623 7.623 0 01-.584-3.066 7.617 7.617 0 01.584-3.064c.354-.85.898-1.61 1.591-2.22a8.362 8.362 0 012.484-1.44 14.397 14.397 0 013.107-.806c1.194-.166 2.4-.245 3.606-.237 1.37-.011 2.739.1 4.09.33 1.163.205 2.294.557 3.366 1.05a6.724 6.724 0 012.523 1.967 6.518 6.518 0 011.276 3h-7.65c-.195-.939-.575-1.629-1.142-2.07-.567-.442-1.39-.662-2.47-.66v.003zM155.932.527v11.045h11.893v3.434h-19.542V.528h7.649zm13.519 0h19.556v3.25h-11.9V6.13h10.652l-.531 3.09h-10.125v2.168h11.9v3.619h-19.557V.528h.005zm-83.22 22.555c-1.327 0-2.28.33-2.855.991-.576.66-.864 1.713-.863 3.158 0 1.444.288 2.496.863 3.157.575.66 1.527.99 2.856.99.62.02 1.239-.084 1.82-.303a2.7 2.7 0 001.167-.898c.32-.463.534-.99.624-1.546h7.662a6.467 6.467 0 01-1.253 2.983 6.512 6.512 0 01-2.546 2.01 13.73 13.73 0 01-3.373 1.044c-1.35.231-2.72.342-4.09.33a25.071 25.071 0 01-3.606-.238 14.32 14.32 0 01-3.107-.806 8.338 8.338 0 01-2.484-1.439 6.085 6.085 0 01-1.594-2.22 8.337 8.337 0 010-6.13c.355-.85.9-1.608 1.594-2.218a8.313 8.313 0 012.484-1.44 14.32 14.32 0 013.107-.806c1.194-.167 2.4-.246 3.606-.239 1.37-.011 2.74.1 4.09.331 1.162.202 2.293.55 3.366 1.04a6.76 6.76 0 012.525 1.968 6.532 6.532 0 011.281 2.998h-7.657c-.195-.933-.575-1.62-1.142-2.06-.567-.44-1.39-.66-2.47-.66l-.004.003zm27.624 2.431v-5.518h7.628V34.47h-7.628v-5.518h-6.742v5.518h-7.65V19.993h7.65v5.519l6.742.002zm17.956 8.957h-7.647V19.993h7.651V34.47h-.004zm10.305-14.478V31.03h11.899v3.436h-19.544V19.993h7.645zm21.168 0V31.03h11.9v3.436h-19.545V19.993h7.645z" fill="#fff"/></svg>
